X:139
T:Waltzes simple chords 6
M:3/4
L:1/8
K:Edor
E2 [A4A,4C4E4] | B2 [c2A2C2E2] B2 | A2 [e2D,2F,2A,2] dc | BA [B4E,4^G,4B,4D4] | E2 [A2A,2C2E2] Ac |
Bd [c2A,2C2E2] B2 | A2 [^G2E,2G,2B,2D2] GB | Ac [B4E,4^G,4B,4D4] | E2 [A4A,4C4E4] |
B2 [c2A2C2E2] B2 | A2 [e2D,2F,2A,2] dc | BA [B4E,4^G,4B,4D4] | E2 [A2A,2C2E2] Ac |
Bd [c2A,2C2E2] B2 | A2 [^G2E,2G,2B,2D2] GB | Ac [B4E,4^G,4B,4D4] | E2 [A4A,4C4E4] |
B2 [c2A2C2E2] B2 | A2 [e2D,2F,2A,2] dc | BA [B4E,4^G,4B,4D4] | E2 [A2A,2C2E2] Ac |
Bd [c2A,2C2E2] B2 | A2 [^G2E,2G,2B,2D2] GB | Ac [B4E,4^G,4B,4D4] | E2 [A4A,4C4E4] |
B2 [c2A2C2E2] B2 | A2 [e2D,2F,2A,2] dc | BA [B4E,4^G,4B,4D4] | E2 [A2A,2C2E2] Ac |
Bd [c2A,2C2E2] B2 | A2 [^G2E,2G,2B,2D2] GB | Ac [B4E,4^G,4B,4D4] | B2 [c4A,4C4E4] |
c2 [d4G4B,4D4] | d2 [e2C,2E,2G,2] e2 | f2 [e4C,4E,4G,4] | d2 [cA,CE]B cd |
c2 [dGB,DF]c de | d2 [eC,E,G,]f ef | ef2< [g2G,2B,2D2F2]f | ed [cC,E,G,]B cd |
ec [dG,B,D]c de | fd [e2A,2C2E2] e2 | a2 [^g2E,2G,2B,2D2] ga | b^g [a2A,2C2E2] e2 |
c2 [f2D,2F,2A,2] e2 | d2 [c2E,2^G,2B,2D2] dc | Bc [A4A,4C4E4] |


